X:1
T:'Ard Tac
M:4/4
L:1/8
K:Eb
 EF| G3/2 B,/2 B,3/2 C/2 E2 E3/2 c/2| B3/2 G/2 F3/2 E/2 F2 G3/2 A/2|\
 B3.99999962500005/5.99999925000009 B3.99999962500005/5.99999925000009 B3.99999962500005/5.99999925000009 =A3/2 B/2 c3/2 B/2 G3/2 F/2|\
 F2 z2 z2| EF| G3/2 B,/2 B,3/2 C/2 E2 E3/2 c/2| B3/2 G/2 F3/2 E/2 F2 G3/2 A/2|\
 B3/2 B/2 B3/2 G/2 F3/2 A/2 G3/2 F/2| E2 z2 z2||
